src/assets/tno.svg

<svg width="232" height="40" viewBox="0 0 232 40" fill="none" xmlns="http://www.w3.org/2000/svg">
<path fill-rule="evenodd" clip-rule="evenodd" d="M88.852 25.1578C89.8672 25.836 91.0603 26.1979 92.2811 26.1979C93.9179 26.1979 95.4879 25.5477 96.6452 24.3903C97.8028 23.2329 98.4531 21.663 98.4531 20.0261C98.4531 18.8054 98.091 17.6122 97.4129 16.5971C96.7348 15.5822 95.7707 14.7911 94.643 14.324C93.5151 13.8569 92.2741 13.7346 91.077 13.9728C89.8799 14.211 88.7802 14.7987 87.917 15.6618C87.0538 16.525 86.4659 17.6248 86.2277 18.8221C85.9896 20.0192 86.1118 21.2602 86.5789 22.388C87.0463 23.5158 87.8371 24.4796 88.852 25.1578ZM79.5477 4.84476C83.1103 1.85736 87.6326 0.258255 92.2811 0.342071L92.3583 0.320007C103.776 0.320007 112.042 8.58596 112.042 20.0041C112.087 22.6008 111.608 25.18 110.635 27.5877C109.661 29.9955 108.213 32.1827 106.376 34.0186C104.539 35.8546 102.351 37.3018 99.9427 38.274C97.5345 39.2461 94.9549 39.7232 92.3583 39.6769C82.1747 39.6769 74.5037 33.0862 72.9718 23.564V38.9938H63.8682C62.5565 39.0891 61.2431 38.8331 60.0633 38.2519C58.8836 37.6709 57.88 36.7855 57.1562 35.6874L48.736 24.2142V39.0819H38.8169C35.8853 39.0819 34.6288 37.8144 34.6288 34.8937V15.276H25.6024V39.0819H14.8567C11.9251 39.0819 10.6685 37.8144 10.6685 34.8937V15.276H4.13298C1.24528 15.276 0 14.0305 0 11.143V1.03642H43.6331C44.9434 0.939416 46.256 1.1949 47.4343 1.77624C48.6125 2.35771 49.6138 3.2439 50.3341 4.3428L58.7873 15.816V0.981391H68.7065C71.6383 0.981391 72.8946 2.2377 72.8946 5.16939V16.5985C73.6222 12.0064 75.9852 7.83202 79.5477 4.84476ZM221.065 5.16939V17.1495H223.699V10.2392C223.699 8.16715 224.911 6.83362 226.465 6.83362C227.777 6.83362 228.493 7.72627 228.493 9.44565V17.0944H231.127V9.37946C231.127 6.28255 229.848 4.73955 227.237 4.73955C226.455 4.73497 225.689 4.9575 225.031 5.38021C224.374 5.8028 223.854 6.40727 223.533 7.12018V5.16939H221.065ZM212.876 6.80052C214.628 6.80052 215.741 8.35456 215.741 11.209C215.741 14.0635 214.639 15.5515 212.876 15.5515C211.113 15.5515 210.032 14.0305 210.032 11.209C210.032 8.38752 211.135 6.80052 212.876 6.80052ZM212.876 4.83884C209.492 4.83884 207.167 7.30746 207.167 11.154C207.167 15.0004 209.47 17.4692 212.876 17.4692C216.281 17.4692 218.607 15.0004 218.607 11.154C218.607 7.30746 216.281 4.83884 212.876 4.83884ZM202.009 17.1495H204.731V5.16939H202.009V17.1495ZM202.009 3.20758H204.731V1.00332H202.009V3.20758ZM196.157 1.86301L193.644 2.07249L193.544 5.16939H191.473V7.01H193.478V13.0055C193.478 16.1245 194.382 17.4692 197.248 17.4692C197.893 17.4608 198.536 17.3833 199.165 17.2378V15.0885C198.73 15.1999 198.281 15.2555 197.832 15.2539C196.41 15.2539 196.157 14.4823 196.157 12.741V6.93277H198.835V5.16939H196.157V1.86301ZM186.865 11.1761V12.0356C186.876 12.2343 186.869 12.4332 186.844 12.6296C186.815 12.8644 186.76 13.0958 186.681 13.3199C186.535 13.7316 186.309 14.1103 186.015 14.434C185.722 14.7578 185.368 15.0205 184.973 15.2065C184.578 15.3926 184.15 15.4986 183.714 15.5184C182.391 15.5184 181.576 14.7909 181.576 13.7219C181.576 12.0356 183.129 11.1761 186.26 11.1761H186.865ZM179.052 8.2663L181.576 8.57493C181.829 7.34055 182.755 6.70137 184.364 6.70137C185.973 6.70137 186.865 7.42881 186.865 8.90562V9.5779H186.612C181.311 9.5779 178.732 10.9666 178.732 13.8652C178.732 15.9593 180.341 17.4471 182.854 17.4471C183.684 17.4746 184.506 17.2667 185.224 16.8475C185.941 16.4283 186.526 15.8146 186.91 15.0775C186.921 15.7752 187.006 16.4697 187.163 17.1495H189.819C189.558 16.3843 189.442 15.5769 189.478 14.769V9.54481C189.478 6.23843 188.1 4.83884 184.628 4.83884C181.454 4.83884 179.57 6.00702 179.03 8.2663H179.052ZM170.686 17.1495H173.133L177.376 5.16939H175.172L172.185 14.284L169.231 5.16939H166.498L170.686 17.1495ZM159.566 6.80052C161.318 6.80052 162.431 8.35456 162.431 11.209C162.431 14.0635 161.329 15.5515 159.566 15.5515C157.803 15.5515 156.722 14.0305 156.722 11.209C156.722 8.38752 157.825 6.80052 159.566 6.80052ZM159.566 4.83884C156.182 4.83884 153.857 7.30746 153.857 11.154C153.857 15.0004 156.16 17.4692 159.566 17.4692C162.971 17.4692 165.297 15.0004 165.297 11.154C165.297 7.30746 162.971 4.83884 159.566 4.83884ZM141.359 5.16939V17.1495H143.993V10.2392C143.993 8.16715 145.205 6.83362 146.759 6.83362C148.071 6.83362 148.787 7.72627 148.787 9.44565V17.0944H151.421V9.37946C151.421 6.28255 150.143 4.73955 147.531 4.73955C146.749 4.73497 145.983 4.9575 145.326 5.38021C144.668 5.8028 144.148 6.40727 143.828 7.12018V5.16939H141.359ZM128.133 5.16939V17.1495H130.767V10.2392C130.767 8.16715 131.98 6.83362 133.545 6.83362C134.845 6.83362 135.573 7.72627 135.573 9.44565V17.0944H138.207V9.37946C138.207 6.28255 136.917 4.73955 134.316 4.73955C133.535 4.73497 132.769 4.9575 132.111 5.38021C131.454 5.8028 130.933 6.40727 130.613 7.12018V5.16939H128.133ZM121.179 17.1495H123.901V5.16939H121.157L121.179 17.1495ZM121.179 3.20758H123.901V1.00332H121.157L121.179 3.20758ZM178.159 31.7858C178.324 29.7799 179.415 28.6557 180.969 28.6557C182.755 28.6557 183.769 29.7579 183.846 31.7858H178.159ZM178.159 33.4609H186.733V33.0421C186.733 29.1407 184.529 26.749 181.024 26.749C177.519 26.749 175.293 29.2839 175.293 33.0862C175.293 36.8887 177.608 39.3793 181.101 39.3793C182.31 39.4532 183.508 39.1214 184.507 38.4366C185.505 37.7517 186.246 36.753 186.612 35.5991L184.022 35.3236C183.845 35.9213 183.476 36.444 182.972 36.8106C182.468 37.1774 181.857 37.3675 181.234 37.3515C179.338 37.3515 178.148 35.9738 178.148 33.5271L178.159 33.4609ZM175.392 22.8365C174.631 22.681 173.855 22.6106 173.078 22.6271C170.455 22.6271 169.243 23.9716 169.243 26.8371V27.0797H167.259V28.9091H169.243V39.0488H171.866V28.9091H174.731V27.0797H171.822V26.749C171.822 25.2832 172.406 24.622 173.805 24.622C174.338 24.6364 174.869 24.6917 175.392 24.7872V22.8365ZM162.266 39.0488H164.988V27.0797H162.266V39.0488ZM162.266 25.1179H164.988V22.9136H162.266V25.1179ZM155.653 39.0488H158.376V22.8805H155.653V39.0488ZM148.666 26.7711H148.038C146.363 26.7711 145.26 27.7189 144.654 29.6807V27.1018H142.207V39.0708H144.886V33.1304C144.886 30.7718 146.153 29.35 148.082 29.35C148.208 29.3415 148.334 29.3386 148.46 29.3411C148.529 29.3425 148.597 29.3454 148.666 29.35V26.7711ZM134.283 28.6998C136.036 28.6998 137.16 30.2647 137.16 33.1083C137.16 35.9517 136.058 37.4397 134.283 37.4397C132.509 37.4397 131.44 35.9297 131.44 33.1083C131.44 30.2868 132.542 28.6998 134.283 28.6998ZM134.283 26.749C130.91 26.749 128.574 29.2178 128.574 33.0642C128.574 36.9106 130.889 39.3793 134.283 39.3793C137.678 39.3793 140.014 36.9106 140.014 33.0642C140.014 29.2178 137.689 26.749 134.283 26.749ZM128.111 22.8365C127.35 22.681 126.574 22.6106 125.797 22.6271C123.163 22.6271 121.95 23.9716 121.95 26.8371V27.0797H120.055V28.9091H122.028V39.0488H124.661V28.9091H127.527V27.0797H124.617V26.749C124.617 25.2832 125.202 24.622 126.601 24.622C127.134 24.6364 127.664 24.6917 128.189 24.7872L128.111 22.8365Z" fill="black"/>
</svg>

<svg xmlns="http://www.w3.org/2000/svg" viewBox="0 0 232 40"><path d="M88.85 25.16a6.173 6.173 0 1 0 6.858-10.27 6.173 6.173 0 0 0-6.858 10.27m-9.3-20.32A19.28 19.28 0 0 1 92.28.342l.077-.022c11.42 0 19.68 8.266 19.68 19.68a19.35 19.35 0 0 1-12.1 18.27 19.3 19.3 0 0 1-7.584 1.403c-10.18 0-17.85-6.59-19.39-16.11v15.43h-9.104a7.4 7.4 0 0 1-6.712-3.307l-8.42-11.47v14.87h-9.92c-2.93 0-4.187-1.268-4.187-4.188V15.28h-9.027v23.81H14.86c-2.932 0-4.188-1.268-4.188-4.188V15.28H4.133C1.245 15.28 0 14.03 0 11.14V1.036h43.63a7.36 7.36 0 0 1 6.701 3.307l8.453 11.47V.981h9.92c2.931 0 4.188 1.257 4.188 4.188V16.6a19.28 19.28 0 0 1 6.653-11.75m141.5.324v11.98h2.634v-6.91c0-2.072 1.212-3.405 2.766-3.405 1.312 0 2.028.892 2.028 2.612v7.648h2.634V9.38c0-3.096-1.279-4.64-3.89-4.64a4.04 4.04 0 0 0-3.704 2.381V5.17zm-8.189 1.632c1.752 0 2.865 1.554 2.865 4.408s-1.102 4.343-2.865 4.343-2.844-1.521-2.844-4.343 1.103-4.408 2.844-4.408m0-1.962c-3.384 0-5.709 2.468-5.709 6.315 0 3.846 2.303 6.315 5.709 6.315s5.731-2.469 5.731-6.315-2.326-6.315-5.731-6.315m-10.87 12.31h2.722V5.17h-2.722zm0-13.94h2.722V1.003h-2.722zm-5.852-1.345-2.513.21-.1 3.096h-2.071v1.84h2.005v5.996c0 3.119.904 4.463 3.77 4.463a9 9 0 0 0 1.917-.231v-2.15a5.3 5.3 0 0 1-1.333.166c-1.422 0-1.675-.772-1.675-2.513V6.933h2.678V5.169h-2.678zm-9.292 9.313v.86a3.3 3.3 0 0 1-.184 1.284 3.3 3.3 0 0 1-2.967 2.198c-1.323 0-2.138-.727-2.138-1.796 0-1.686 1.553-2.546 4.684-2.546zm-7.813-2.91 2.524.309c.253-1.234 1.179-1.874 2.788-1.874s2.501.728 2.501 2.205v.672h-.253c-5.301 0-7.88 1.389-7.88 4.287 0 2.094 1.609 3.582 4.122 3.582a4.41 4.41 0 0 0 4.056-2.37 10 10 0 0 0 .253 2.073h2.656a6.5 6.5 0 0 1-.341-2.381v-5.23c0-3.307-1.378-4.706-4.85-4.706-3.174 0-5.058 1.168-5.598 3.427zm-8.366 8.884h2.447l4.243-11.98h-2.204l-2.987 9.114-2.954-9.115h-2.733zM159.6 6.8c1.752 0 2.865 1.555 2.865 4.409s-1.102 4.343-2.865 4.343-2.844-1.521-2.844-4.343 1.103-4.408 2.844-4.408m0-1.961c-3.384 0-5.709 2.468-5.709 6.315 0 3.846 2.303 6.315 5.709 6.315s5.731-2.469 5.731-6.315-2.326-6.315-5.731-6.315m-18.21.33v11.98h2.634v-6.91c0-2.072 1.212-3.405 2.766-3.405 1.312 0 2.028.892 2.028 2.612v7.648h2.634V9.38c0-3.096-1.278-4.64-3.89-4.64a4.03 4.03 0 0 0-3.703 2.381V5.17zm-13.23 0v11.98h2.634v-6.91c0-2.072 1.213-3.405 2.778-3.405 1.3 0 2.028.892 2.028 2.612v7.648h2.634V9.38c0-3.096-1.29-4.64-3.891-4.64a4.04 4.04 0 0 0-3.703 2.381V5.17zm-6.954 11.98h2.722V5.17h-2.744zm0-13.94h2.722V1.003h-2.744zm56.98 28.58c.165-2.006 1.256-3.13 2.81-3.13 1.786 0 2.8 1.102 2.877 3.13zm0 1.675h8.574v-.419c0-3.901-2.204-6.293-5.709-6.293s-5.731 2.535-5.731 6.337c0 3.803 2.315 6.293 5.808 6.293a5.436 5.436 0 0 0 5.511-3.78l-2.59-.275a2.834 2.834 0 0 1-2.788 2.028c-1.896 0-3.086-1.378-3.086-3.825zm-2.767-10.62a10.5 10.5 0 0 0-2.314-.21c-2.623 0-3.835 1.345-3.835 4.21v.243h-1.984v1.83h1.984V39.05h2.623V28.91h2.865v-1.83h-2.909v-.33c0-1.466.584-2.127 1.983-2.127q.801.022 1.587.165zM162.3 39.05h2.722V27.08H162.3zm0-13.93h2.722v-2.204H162.3zm-6.613 13.93h2.723V22.88h-2.723zM148.7 26.77h-.628c-1.675 0-2.778.948-3.384 2.91V27.1h-2.447v11.97h2.679v-5.94c0-2.36 1.267-3.781 3.196-3.781a4 4 0 0 1 .584 0zm-14.4 1.93c1.753 0 2.877 1.565 2.877 4.408s-1.102 4.332-2.877 4.332-2.843-1.51-2.843-4.332 1.102-4.408 2.843-4.408m0-1.951c-3.373 0-5.709 2.469-5.709 6.315s2.315 6.315 5.709 6.315c3.395 0 5.731-2.468 5.731-6.315 0-3.846-2.325-6.315-5.731-6.315m-6.172-3.912a10.5 10.5 0 0 0-2.314-.21c-2.634 0-3.847 1.345-3.847 4.21v.243h-1.895v1.83h1.973v10.14h2.633V28.91h2.866v-1.83h-2.91v-.33c0-1.466.585-2.127 1.984-2.127q.8.022 1.588.165z"/></svg>
